remix/Editor/line-height.svg

<svg viewBox="0 0 24 24" xmlns="http://www.w3.org/2000/svg"><path fill="none" d="M0 0h24v24H0Z"/><path d="M11 4h10v2H11V4ZM6 7v4H4V7H1l4-4 4 4H6Zm0 10h3l-4 4 -4-4h3v-4h2v4Zm5 1h10v2H11v-2Zm-2-7h12v2H9v-2Z"/></svg>

<svg viewBox="0 0 24 24" fill="currentColor" xmlns="http://www.w3.org/2000/svg"><path d="M11 4H21V6H11V4ZM6 7V11H4V7H1L5 3L9 7H6ZM6 17H9L5 21L1 17H4V13H6V17ZM11 18H21V20H11V18ZM9 11H21V13H9V11Z"/></svg>
